X:1
T:Title
%%score [ ( 1 2 ) ( 3 4 ) ]
L:1/8
Q:1/4=120
M:3/4
K:C
V:1 treble nm=" " snm=" "
V:2 treble 
V:3 bass nm="Midi_74"
V:4 bass 
V:1
[K:Eb] E2 | G2 F2"^Mae Hen Wlad Fy Nhadau" E2 | B2 A2 G2 | e2 e2 cd | e4 | c2 B2 G2 | E2 E2 D2 | %7
w: |||||Gwlad beirdd a|chan- to- rion,|
 E2 G2 F2 | F2 F4 | B2 B2 B2 | GA B2 B2 | cd e2 e2 | cd e4 | c2 B2 G2 | E2 F2 G2 | F2 E6- | E4 z2 | %17
w: en- wo- gion|o fri;|||||Tros ry- didd|co- lla- sant|eu gwaed.||
 x6 | B6 | e6 | (B2 G2) E2 | (E2 D2) E2 | F4 B2 | B4 GA | B4 e2 | e4 cd | e4 c2 | B2 G2 E2 | %28
w: |||||||||||
 F2 !fermata!G2 F2 | E6- |] E4 |] %31
w: |||
V:2
[K:Eb] E2 | E2 B,2 B,2 | G2 F2 E2 | E2 E2 E2 | E4 | F2 B,2 B,2 | B,2 C2 C2 | C2 E2 E2 | E2 D4 | %9
w: Mae|hen wlad fy|nha- dau yn|an- nwyl i|mi,|||||
 F2 E2 E2 | ED E2 E2 | E2 E2 E2 | F2 E4 | E2 E2 E2 | B,2 D2 D2 | D2 E2 D2 x2 | C2 B,4 | z2 x4 | %18
w: Ei gw- rol|ry * fe- lwyr,|gwlad- gar- wyr|tra mâd,||||||
 G6 | G6 | G2 E2 B,2 | C4 C2 | D4 F2 | E4 E2 | E4 E2 | E4 E2 | E4 E2 | E2 E2 B,2 | D2 D2 D2 | %29
w: Gwlad,|gwlad,|plei * diol|wyf i'm|gwlad. Tra|môr yn|fur i'r|bur hoff|bau, O!|by- dded i'r|hen iaith bar-|
 E6- |] E4 |] %31
w: hau.||
V:3
[K:Eb] G,2 | B,2 A,2 G,2 | B,2 B,2 B,2 | C2 C2 A,B, | C4 | D2 E2 B,2 | G,2 G,2 F,2 | G,2 C2 C2 | %8
 C2 B,4 | A,2 G,2 G,2 | B,2 B,2 B,2 | A,2 B,2 B,2 | A,2 G,4 | A,2 G,2 B,2 | G,2 A,2 B,2 | %15
 A,2 G,2 B,2 x2 | A,2 G,4 | z2 x4 | B,6 | B,6 | E2 B,2 G,2 | G,2 F,2 =A,2 | B,4 !courtesy!_A,2 | %23
 G,4 B,2 |"^This edition produced by Andrew Sims 2012" B,4 B,2 | C4 A,B, | C4 A,2 | G,2 B,2 G,2 | %28
 A,2 B,2 A,2 | G,6- |] G,4 |] %31
V:4
[K:Eb] E,2 | E,2 E,2 E,2 | E,2 E,2 E,2 | A,2 A,2 A,2 | A,4 | A,2 G,2 E,2 | E,2 C,2 C,2 | %7
 C,2 A,,2 A,,2 | =A,,2 B,,4 | D,2 E,2 E,2 | E,F, G,2 G,2 | A,2 G,2 G,2 | F,2 C,4 | A,,2 B,,2 B,,2 | %14
 B,,2 B,,2 B,,2 | B,,2 E,6- | E,4 z2 | x6 | E,6 | E,6 | E,4 E,2 | C,4 F,2 | B,,4 D,2 | E,4 E,F, | %24
 G,4 G,2 | A,4 A,2 | A,4 A,,2 | B,,2 B,,2 B,,2 | B,,2 !fermata!B,,2 B,,2 | E,6- |] E,4 |] %31

